!!!!SEGMENT: pl-kk--kk-i-386--003-001_anonim--missa-3tia-kyrie.krn
!!!cenid: 18xx:4516
!!!COM: Anonim
!!!COM-rismID: pe30004985
!!!CDT:
!!!CNT:
!!!OPR: Missa 3tia
!!!OTL: Kyrie
!!!OMV: 001
!!!PDT:
!!!AGN: Sacred
!!!YEC: Copyright 2022 Narodowy Instytut Fryderyka Chopina (https://polishscores.org)
!!!YEM: License CC-BY-4.0 (https://creativecommons.org/licenses/by/4.0)
!!!SMS-siglum: PL-Kk
!!!SMS-shelfmark: Kk.I.386
!!!SMS-variant:
!!!SMS-altvar:
!!!SMS-shelfwork: 003-001 M
!!!NIFC-rismSourceID: 1001218240
!!!NIFC-rismChildID: 1001218244
!!!NIFC-islandoraID: pl-kk:16060
!!!URL-pdf-islandora: https://repozytorium.nifc.pl/islandora/object/pl-kk%3A16060/datastream/PDF/view
!!!URL-scan: https://polish.musicsources.pl/pl/lokalizacje/galeria/rekopisy/7134/3 @EN{Scan on Polish Music Sources Website} @PL{Skany w portalu Dziedzictwo Muzyki Polskiej w otwartym dostępie}
!!!IIIF:
!!!ONB-nifc: UWAGA: Części Missy 3tia: Kyrie, Gloria, Graduale, Offertorium, Sanctus, Benedictus, Agnus. Zakres skanów: S -9-11, A – 19-21, T – 29-31, B – 39-41
!!!AIN: 1 alto 1 bass 1 soprn 1 tenor
!!!key:
**kern	**text	**kern	**text	**kern	**text	**kern	**text
*part4	*part4	*part3	*part3	*part2	*part2	*part1	*part1
*staff4	*staff4	*staff3	*staff3	*staff2	*staff2	*staff1	*staff1
*I"Basso.	*	*I"Tenore.	*	*I"Alto.	*	*I"Soprano.	*
*I'B	*	*I'T	*	*I'A	*	*I'S	*
*Ibass	*	*Itenor	*	*Ialto	*	*Isoprn	*
*ICvox	*	*ICvox	*	*ICvox	*	*ICvox	*
*clefF4	*	*clefC4	*	*clefC3	*	*clefC1	*
*k[b-]	*	*k[b-]	*	*k[b-]	*	*k[b-]	*
*d:	*	*d:	*	*d:	*	*d:	*
*M2/2	*	*M2/2	*	*M2/2	*	*M2/2	*
*met(c|)	*	*met(c|)	*	*met(c|)	*	*met(c|)	*
=1	=1	=1	=1	=1	=1	=1	=1
!LO:TX:a:t=2	!	!	!	!	!	!LO:TX:t=P:problem:all\right:global	!
0r	.	2r	.	1f	Ky-	1a	Ky-
*	*	*2\right	*	*	*	*	*
.	.	[2d\	Ky-	.	.	.	.
=2	=2	=2	=2	=2	=2	=2	=2
.	.	2d\]	.	1g	-ri-	1b-	-ri-
.	.	2c#X\	-ri-	.	.	.	.
=3	=3	=3	=3	=3	=3	=3	=3
*	*	*	*	*	*	*2\right	*
1D	Ky-	2d\	-e	1f	-e	2a\	-e
.	.	2A\	e-	.	.	2dd\	e-
=4	=4	=4	=4	=4	=4	=4	=4
1E	-ri-	1G	-le-	1g	e-	2dd\	-lei-
.	.	.	.	.	.	2cc#X\	.
=5	=5	=5	=5	=5	=5	=5	=5
*2\right	*	*	*	*2\right	*	*	*
2F\	-e	1A	.	2f\	-le-	2dd\	-son,
[2D\	e-	.	.	2a\	-i-	2ff\	Ky-
=6	=6	=6	=6	=6	=6	=6	=6
2D\]	-lei-	2B-\	.	1g	-son,	[1ee	.
2C#X/	.	2A\	.	.	.	.	.
=7	=7	=7	=7	=7	=7	=7	=7
1D	-son	1A	-i-	2f\	Ky-	2ee\]	.
.	.	.	.	2f#X\	.	2dd\	-ri-
!	!	!LO:LB:g=original	!	!	!	!	!
=8	=8	=8	=8	=8	=8	=8	=8
2D/	Ky-	2B-\	-son,	2g\	.	1dd	-e
2Cn/	-ri-	2F#X/	Ky-	2a\	-ri-	.	.
!LO:LB:g=original	!	!	!	!LO:LB:g=original	!	!LO:LB:g=original	!
=9	=9	=9	=9	=9	=9	=9	=9
2BB-X/	-e	2G/	.	1g	-e	2dd\	e-
2GG/	e-	[2d\	.	.	.	2b-\	.
=10	=10	=10	=10	=10	=10	=10	=10
1AA	-lei-	2d\]	.	2f\	e-	[1a	-le-
.	.	2c#X\	-ri-	2e\	.	.	.
=11	=11	=11	=11	=11	=11	=11	=11
2D\	-son	2d\	-e	2f\	-le-	2a\]	.
2C/	.	2e-X\	e-	2e-X\	.	2a\	-i-
=12	=12	=12	=12	=12	=12	=12	=12
2BB-/	e-	2d\	-le-	[1f	.	2b-\	-son
2AA/	.	2c\	.	.	.	2cc\	e-
=13	=13	=13	=13	=13	=13	=13	=13
2GG/	-le-	1B-	-i-	4f\]	.	2dd\	-le-
!	!	!	!	!LO:N:vis=16	!	!	!
.	.	.	.	8en\L	.	.	.
!	!	!	!	!LO:N:vis=16	!	!	!
.	.	.	.	8d\J	.	.	.
2C/	-i-	.	.	2e\	-son.	2cc\	-i-
=14	=14	=14	=14	=14	=14	=14	=14
2FF/	-son	2A\	-son	1f	Ky-	2cc\	-son.
2F\	Ky-	2A\	Ky-	.	.	2r	.
=15	=15	=15	=15	=15	=15	=15	=15
!	!	!	!	!	!	!LO:TX:a:t=2	!
2G\	.	2B-\	.	1f	.	0r	.
4A\	.	4c\	.	.	.	.	.
4G\	-ri-	4B-\	-ri-	.	.	.	.
=16	=16	=16	=16	=16	=16	=16	=16
2F\	-e	2A\	-e	2f\	.	.	.
2E\	e-	2c#X\	e-	2g\	-ri-	.	.
!	!	!LO:LB:g=original	!	!	!	!	!
=17	=17	=17	=17	=17	=17	=17	=17
2D\	-le-	1d	-lei-	2f\	-e	1dd	Ky-
4E\	.	.	.	4g\	e-	.	.
4F\	.	.	.	4a\	.	.	.
!LO:LB:g=original	!	!	!	!	!	!	!
=18	=18	=18	=18	=18	=18	=18	=18
2G\	.	2d\	-son	2b-\	-le-	1dd	.
2F\	.	2r	.	2a\	.	.	.
=19	=19	=19	=19	=19	=19	=19	=19
!	!	!LO:TX:a:t=1.	!	!	!	!	!
1E	-i-	1r	.	1g	-i-	2dd\	.
.	.	.	.	.	.	2cc#X\	-ri-
!	!	!	!	!LO:LB:g=original	!	!LO:LB:g=original	!
=20	=20	=20	=20	=20	=20	=20	=20
1D	-son,	1A	Ky-	2f\	-son	2dd\	-e
.	.	.	.	4g\	e-	4ee\	e-
.	.	.	.	4a\	.	4ff\	.
=21	=21	=21	=21	=21	=21	=21	=21
2C#X/	Ky-	1A	-ri-	2e\	-le-	2gg\	-le-
2D/	-ri-	.	.	2f\	.	2ff\	.
=22	=22	=22	=22	=22	=22	=22	=22
2BBn/	-e	1G	-e	2d\	.	2ff\	.
[2C/	.	.	.	2e\	.	2ee\	-i-
=23	=23	=23	=23	=23	=23	=23	=23
2C/]	e-	2A-X\	e-	1f	.	1dd	-son
2BBn/	.	2G/	.	.	.	.	.
=24	=24	=24	=24	=24	=24	=24	=24
2C/	-le-	1G	-le-	1e	.	2cc\	Ky-
2BB-X/	.	.	.	.	.	2cc\	-ri-
=25	=25	=25	=25	=25	=25	=25	=25
2AA-X/	.	1A-X	-i-	1f	.	1cc	-e
2FF/	-i-	.	.	.	.	.	.
=26	=26	=26	=26	=26	=26	=26	=26
!	!	!LO:TX:a:t=2	!	!LO:TX:a:t=2	!	!LO:TX:a:t=2	!
[1C	-son,	[1G	-son.	[1e	-son.	[1cc	.
=27	=27	=27	=27	=27	=27	=27	=27
1C]	.	1G]	.	1e]	.	1cc]	.
!LO:LB:g=original	!	!	!	!	!	!	!
=28	=28	=28	=28	=28	=28	=28	=28
!	!	!LO:TX:a:t=3.	!	!	!	!LO:TX:a:t=2	!
2r	.	0r	.	1f	Chri-	0r	.
[2F\	Chri-	.	.	.	.	.	.
=29	=29	=29	=29	=29	=29	=29	=29
2F\]	.	.	.	1g	-ste	.	.
2E\	-ste,	.	.	.	.	.	.
=30	=30	=30	=30	=30	=30	=30	=30
2F\	.	1r	.	2a\	Chri-	2ff\	Chri-
2r	.	.	.	4cc\	-ste	4ee\	-ste
.	.	.	.	4b-\	e-	4dd\	e-
!	!	!LO:LB:g=original	!	!	!	!LO:PB:g=original	!
=31	=31	=31	=31	=31	=31	=31	=31
!LO:TX:a:t=2	!	!	!	!	!	!	!
0r	.	2r	.	4.a\	-le-	4.cc\	-lei-
.	.	.	.	8b-\	-i-	8dd\	.
!	!	!	!	!LO:LB:g=original	!	!	!
.	.	[2f\	e-	4a\	-son	4cc\	-son
.	.	.	.	4f\	e-	4a\	e-
=32	=32	=32	=32	=32	=32	=32	=32
.	.	4f\]	.	1g	-le-	2.b-\	-le-
.	.	8e\L	.	.	.	.	.
.	.	8d\J	.	.	.	.	.
.	.	2e\	-lei-	.	.	.	.
.	.	.	.	.	.	8cc\L	-i-
.	.	.	.	.	.	8b-\J	.
=33	=33	=33	=33	=33	=33	=33	=33
1F	Chri-	2f\	-son	1f	.	2a\	-son
.	.	2A\	e-	.	.	2ff\	e-
=34	=34	=34	=34	=34	=34	=34	=34
1C	-ste	2.B-\	-le-	1g	-i-	4ff\	-le-
.	.	.	.	.	.	8ee\L	.
.	.	.	.	.	.	8dd\J	.
.	.	.	.	.	.	2ee\	-i-
.	.	8c\L	.	.	.	.	.
.	.	8B-\J	-i-	.	.	.	.
=35	=35	=35	=35	=35	=35	=35	=35
2F\	Chri-	2A/	-son	2f\	-son	2ff\	-son
4E\	-ste	4G/	Chri-	4r	.	2r	.
4D\	e-	4Bn\	-ste	4f\	e-	.	.
=36	=36	=36	=36	=36	=36	=36	=36
!	!	!	!	!	!	!LO:TX:a:t=1.	!
4.C/	-lei-	4.c\	Chri-	4.e\	-le-	1r	.
8D/	.	8Bn\	.	8f\	.	.	.
4C/	-son	4c\	-ste	4e\	.	.	.
4D/	e-	4B-X\	e-	4f\	.	.	.
=37	=37	=37	=37	=37	=37	=37	=37
2E\	-le-	2B-\	-le-	2g\	-son	2cc\	Chri-
!LO:LB:g=original	!	!	!	!	!	!	!
4F\	.	2A\	.	2f\	e-	8cc\L	-ste
.	.	.	.	.	.	8dd\J	.
4D\	.	.	.	.	.	8ee\L	e-
.	.	.	.	.	.	8ff\J	.
!	!	!LO:LB:g=original	!	!	!	!LO:LB:g=original	!
=38	=38	=38	=38	=38	=38	=38	=38
2BB-/	.	1G	-i-	2f\	-le-	2dd\	-le-
2C/	-i-	.	.	2e\	-i-	8dd\L	.
.	.	.	.	.	.	8cc\	.
.	.	.	.	.	.	8b-\	.
.	.	.	.	.	.	8cc\J	.
=39	=39	=39	=39	=39	=39	=39	=39
2F\	-son	2A\	-son	2f\	-son	2a\	-son
4E\	Chri-	4G/	Chri-	4r	.	2r	.
4D\	.	4Bn\	-ste	4f\	e-	.	.
=40	=40	=40	=40	=40	=40	=40	=40
!	!	!	!	!	!	!LO:TX:a:t=1.	!
4.C/	-ste	4.c\	Chris-	4.e\	-le-	1r	.
8D/	Chri-	8Bn\	.	8f\	-i-	.	.
4C/	-ste	4c\	-te	4e\	-son	.	.
4D/	e-	4B-X\	e-	4f\	e-	.	.
!	!	!	!	!LO:PB:g=original	!	!	!
=41	=41	=41	=41	=41	=41	=41	=41
2E\	-le-	2B-\	-le-	2g\	-le-	2cc\	Chri-
4F\	.	2A\	.	2f\	.	8cc\L	-ste
.	.	.	.	.	.	8dd\J	.
4D\	.	.	.	.	.	8ee\L	e-
.	.	.	.	.	.	8ff\J	.
=42	=42	=42	=42	=42	=42	=42	=42
2BB-/	.	1G	-i-	2f\	.	2dd\	-le-
2C/	-i-	.	.	2e\	-i-	8dd\L	.
.	.	.	.	.	.	8cc\	.
.	.	.	.	.	.	8b-\	.
.	.	.	.	.	.	8a\J	-i-
=43	=43	=43	=43	=43	=43	=43	=43
2F\	-son	1A	-son	2f\	-son	2f/	-son
2E\	e-	.	.	2c#X\	e-	2g/	e-
!LO:LB:g=original	!	!	!	!	!	!	!
=44	=44	=44	=44	=44	=44	=44	=44
2D/	-le-	1A	e-	2d\	-le-	2f/	-le-
2C/	.	.	.	2e\	.	2a/	.
!	!	!	!	!	!	!LO:LB:g=original	!
=45	=45	=45	=45	=45	=45	=45	=45
1BB-	-i-	1d	-lei-	1d	-i-	2a\	.
.	.	.	.	.	.	2g\	-i-
=46	=46	=46	=46	=46	=46	=46	=46
1AA	-son	1c#X	-son.	1e	-son,	1a	-son.
=47||	=47||	=47||	=47||	=47||	=47||	=47||	=47||
!LO:TX:a:t=2	!	!	!	!	!	!	!
0r	.	2r	.	1f	Ky-	1a	Ky-
.	.	[2d\	Ky-	.	.	.	.
!	!	!LO:LB:g=original	!	!	!	!	!
=48	=48	=48	=48	=48	=48	=48	=48
.	.	2d\]	.	1g	-ri-	1b-	-ri-
.	.	2c#X\	-ri-	.	.	.	.
=49	=49	=49	=49	=49	=49	=49	=49
1D	Ky-	2d\	-e	1f	-e	2a\	-e
.	.	2A\	e-	.	.	2dd\	e-
=50	=50	=50	=50	=50	=50	=50	=50
1E	-ri-	1G	-le-	1g	e-	2dd\	-le-
.	.	.	.	.	.	2cc#X\	-i-
=51	=51	=51	=51	=51	=51	=51	=51
2F\	-e	1A	.	2f\	-le-	2dd\	-son
[2D\	e-	.	.	2a\	.	2ff\	e-
=52	=52	=52	=52	=52	=52	=52	=52
2D\]	-le-	2B-\	.	1g	-i-	1ee	-lei-
2C#X/	-i-	2A\	-i-	.	.	.	.
!	!	!	!	!LO:LB:g=original	!	!	!
=53	=53	=53	=53	=53	=53	=53	=53
[1D	-son	1A	-son	2f\	-son	2ee\	.
.	.	.	.	2f#X\	Ky-	2dd\	-son.
=54	=54	=54	=54	=54	=54	=54	=54
2D\]	Ky-	2B-\	Ky-	2g\	.	1dd	Ky-
2Cn/	.	2F#X/	.	2a\	-ri-	.	.
!LO:LB:g=original	!	!	!	!	!	!	!
=55	=55	=55	=55	=55	=55	=55	=55
2BB-/	.	2G/	.	1g	-e	2dd\	.
2GG/	-ri-	[2d\	-ri-	.	.	2b-\	-ri-
!	!	!	!	!	!	!LO:LB:g=original	!
=56	=56	=56	=56	=56	=56	=56	=56
1AA	-e	2d\]	.	2f\	e-	1a	-e
.	.	2c#X\	.	2e\	.	.	.
=57	=57	=57	=57	=57	=57	=57	=57
2D\	e-	2d\	-e	2f\	-le-	2a\	.
2C/	.	2e-X\	e-	2e-X\	.	2a\	e-
!	!	!LO:LB:g=original	!	!	!	!	!
=58	=58	=58	=58	=58	=58	=58	=58
2BB-/	.	1d	-lei-	2f\	.	2b-\	-le-
2AA/	.	.	.	2f#X\	.	2cc\	.
=59	=59	=59	=59	=59	=59	=59	=59
2GG/	-le-	2d\	-son	2g\	.	2b-\	.
2GG#X/	.	2Bn\	e-	2fn\	.	2dd\	.
=60	=60	=60	=60	=60	=60	=60	=60
1AA	-i-	2.A\	-le-	1e	-i-	4dd\	.
.	.	.	.	.	.	8cc#X\L	.
.	.	.	.	.	.	8bn\J	.
.	.	.	.	.	.	2cc#\	-i-
.	.	4G/	-i-	.	.	.	.
=61	=61	=61	=61	=61	=61	=61	=61
1BB-;	-son,	1F;	-son	1d;	-son	1dd;	-son
=62||	=62||	=62||	=62||	=62||	=62||	=62||	=62||
2r	.	2r	.	2r	.	2r	.
[2B-\	e-	2B-\	e-	2f\	e-	2dd\	e-
=63	=63	=63	=63	=63	=63	=63	=63
2B-\]	.	1c	-lei-	1f	-le-	2.ff\	-le-
2A\	.	.	.	.	.	.	.
.	.	.	.	.	.	4ee-X\	.
!LO:LB:g=original	!	!	!	!LO:LB:g=original	!	!	!
=64	=64	=64	=64	=64	=64	=64	=64
2B-\	-le-	2B-\	-son	2f\	.	1dd	.
2G\	.	2B-\	e-	2e\	-i-	.	.
=65	=65	=65	=65	=65	=65	=65	=65
2F\	.	2A\	-le-	2f\	-son	1ryy	.
2D\	.	2F/	.	2r	.	.	.
=66	=66	=66	=66	=66	=66	=66	=66
!	!	!	!	!	!	!LO:TX:a:t=2	!
2E\	.	2G/	.	2r	.	0dd	-i-
2F#X\	.	2A/	.	2a\	e-	.	.
!	!	!LO:LB:g=original	!	!	!	!	!
=67	=67	=67	=67	=67	=67	=67	=67
1G	-i-	1B-	-i-	4a\	-le-	.	.
.	.	.	.	8g\L	.	.	.
.	.	.	.	8f#X\J	.	.	.
.	.	.	.	2g\	-i-	.	.
=68	=68	=68	=68	=68	=68	=68	=68
!LO:TX:a:t=2	!	!LO:TX:a:t=2.	!	!LO:TX:a:t=2	!	!LO:TX:a:t=2	!
0D	-son.	0A	-son.	0f#X	-son.	0dd	-son.
==	==	==	==	==	==	==	==
*-	*-	*-	*-	*-	*-	*-	*-
!!!system-decoration: [(s1,s2,s3,s4)]
!!!ENC: Andrzej Gręziak
!!!END: 2023-11-02
!!!ENC: Leszek Kubiak
!!!END: 2024-06-27
